learn-pr/achievements/azure-active-directory.svg

<svg width="100" height="100" viewBox="0 0 100 100" fill="none" xmlns="http://www.w3.org/2000/svg"><g clip-path="url(#clip0_259913)"><path d="M49.6401 96.4499c-9.2581 0-18.3084-2.7454-26.0062-7.8889C15.936 83.4174 9.93624 76.1067 6.3933 67.5533 2.85036 58.9999 1.92337 49.588 3.72954 40.5077c1.80617-9.0802 6.2644-17.421 12.81086-23.9675C23.0869 9.99372 31.4277 5.5355 40.5079 3.72933c9.0803-1.80618 18.4922-.87918 27.0456 2.66375 8.5534 3.54294 15.8641 9.54272 21.0077 17.24052 5.1435 7.6979 7.8889 16.7481 7.8889 26.0063.0004 6.1473-1.2101 12.2345-3.5623 17.9139-2.3523 5.6794-5.8003 10.8399-10.1471 15.1867s-9.5072 7.7948-15.1867 10.1471c-5.6794 2.3522-11.7666 3.5627-17.9139 3.5623z" fill="url(#paint0_linear_259913)"/><path fill-rule="evenodd" clip-rule="evenodd" d="M95.54 49.6399c0 9.0781-2.692 17.9524-7.7355 25.5007-5.0436 7.5482-12.2122 13.4313-20.5993 16.9054-8.3872 3.474-17.6161 4.383-26.5198 2.6119-8.9038-1.771-17.0824-6.1426-23.5016-12.5618S6.39302 67.4983 4.62196 58.5945c-1.77107-8.9037-.86209-18.1327 2.61197-26.5198C10.708 23.6876 16.5911 16.519 24.1393 11.4754 31.6875 6.43187 40.5618 3.73988 49.64 3.73988c6.0277-.00002 11.9963 1.1872 17.5652 3.49389C72.774 9.54045 77.834 12.9214 82.0963 17.1836c4.2622 4.2622 7.6431 9.3222 9.9498 14.8911 2.3067 5.5688 3.4939 11.5375 3.4939 17.5652zM49.64-.00010645c9.8179 0 19.4152 2.91133645 27.5785 8.36584645C85.3818 13.8203 91.7442 21.573 95.5014 30.6435c3.7571 9.0705 4.7406 19.0515 2.8248 28.6807-1.9154 9.6292-6.6431 18.4742-13.5854 25.4165-6.9423 6.9423-15.7873 11.67-25.4165 13.5854-9.6292 1.9149-19.6102.9323-28.6807-2.8248-9.0705-3.7572-16.8232-10.1197-22.27776-18.2829C2.91133 69.0551-.00000162 59.4577 3.6e-7 49.6399-.00078643 43.1208 1.28265 36.6655 3.77702 30.6425 6.27138 24.6196 9.92781 19.147 14.5375 14.5374c4.6096-4.6097 10.0822-8.26613 16.1052-10.76049C36.6656 1.28254 43.121-.00089455 49.64-.00010645z" fill="#F2F1F0"/><path fill-rule="evenodd" clip-rule="evenodd" d="M92.7296 49.64c0 8.5224-2.5272 16.8534-7.262 23.9395-4.7348 7.0861-11.4645 12.6091-19.3382 15.8705-7.8737 3.2613-16.5376 4.1147-24.8963 2.452-8.3586-1.6626-16.0365-5.7665-22.0628-11.7928C13.1441 74.083 9.04017 66.4051 7.37753 58.0464 5.7149 49.6878 6.56822 41.0238 9.8296 33.1502 13.091 25.2765 18.6139 18.5468 25.7 13.812 32.7862 9.07718 41.1172 6.55 49.6396 6.55c5.6587-.00035 11.2621 1.11397 16.4902 3.27933 5.2281 2.16537 9.9784 5.33937 13.9798 9.34067 4.0013 4.0013 7.1753 8.7517 9.3406 13.9798 2.1654 5.228 3.2797 10.8314 3.2794 16.4902zm-43.09-46.83c9.2621 0 18.3162 2.74653 26.0173 7.8923 7.7012 5.1457 13.7035 12.4596 17.248 21.0166 3.5444 8.5571 4.4718 17.973 2.6648 27.0572-1.8069 9.0841-6.267 17.4284-12.8163 23.9777-6.5493 6.5493-14.8936 11.0094-23.9777 12.8164-9.0842 1.8069-18.5001.8795-27.0572-2.6649-8.5571-3.5445-15.8709-9.5468-21.0167-17.2479C5.5561 67.9562 2.80957 58.9021 2.80957 49.64c.00119-12.4197 4.93544-24.3304 13.71753-33.1125C25.3091 7.74544 37.2198 2.81119 49.6396 2.81z" fill="#0078D4"/><path fill-rule="evenodd" clip-rule="evenodd" d="M92.7296 49.6399c0 8.5224-2.5272 16.8534-7.262 23.9395-4.7348 7.0861-11.4645 12.6091-19.3382 15.8705-7.8737 3.2613-16.5376 4.1147-24.8963 2.452-8.3586-1.6626-16.0365-5.7665-22.0628-11.7928C13.1441 74.0829 9.04017 66.405 7.37753 58.0463 5.7149 49.6877 6.56822 41.0237 9.8296 33.1501c3.2614-7.8737 8.7843-14.6034 15.8705-19.3382 7.0861-4.73482 15.4171-7.262 23.9395-7.262 5.6587-.00034 11.2621 1.11398 16.4902 3.27933 5.2281 2.16537 9.9784 5.33937 13.9798 9.34067 4.0013 4.0013 7.1753 8.7517 9.3406 13.9798 2.1654 5.228 3.2797 10.8314 3.2794 16.4902zm-43.09-46.83c9.2621 0 18.3162 2.74653 26.0173 7.8923 7.7012 5.1457 13.7035 12.4596 17.2479 21.0166 3.5445 8.5571 4.4719 17.973 2.6649 27.0572-1.8069 9.0841-6.267 17.4284-12.8163 23.9777-6.5493 6.5493-14.8936 11.0094-23.9777 12.8164-9.0842 1.8069-18.5001.8795-27.0572-2.6649-8.5571-3.5445-15.8709-9.5468-21.0167-17.2479-5.1457-7.7012-7.89223-16.7553-7.89223-26.0174.00118-12.4197 4.93542-24.3304 13.71753-33.1125 8.782-8.7821 20.6927-13.71635 33.1125-13.71754v.00004z" fill="#0078D4"/><path fill-rule="evenodd" clip-rule="evenodd" d="M35.4068 23.0159c-1.3307 0-2.6069.5286-3.5479 1.4696-.941.941-1.4696 2.2172-1.4696 3.5479v43.2802c0 .5466-.1077 1.0878-.3168 1.5927-.2092.505-.5158.9638-.9022 1.3502-.3865.3865-.8453.6931-1.3503.9022-.5049.2092-1.0462.3168-1.5927.3168H63.585c.6589 0 1.3113-.1298 1.9201-.3819.6088-.2522 1.1619-.6218 1.6278-1.0877.4659-.4659.8355-1.019 1.0877-1.6278.2521-.6087.3819-1.2612.3819-1.9201V27.1778c0-1.1038.4385-2.1624 1.219-2.9429.7805-.7805 1.8391-1.219 2.9429-1.219H35.4068z" fill="#fff"/><path fill-rule="evenodd" clip-rule="evenodd" d="M60.4008 72.3188c-.0609-.2809-.2149-.533-.437-.7154-.2221-.1825-.4992-.2846-.7866-.2899H23.6125c-.2143.0009-.4247.0563-.6117.1609-.187.1046-.3443.255-.4571.4371-.1128.1821-.1775.39-.188.6039-.0104.214.0338.4271.1283.6194.3417.7019.8739 1.2936 1.5358 1.7075.6619.4138 1.4268.6332 2.2075.6331h38.2132c-.929-.0001-1.8313-.3109-2.5633-.8828-.732-.572-1.2517-1.3724-1.4764-2.2738zM72.7645 23.0158c-1.1037.0001-2.1623.4385-2.9428 1.219-.7805.7805-1.2189 1.8391-1.2189 2.9429v3.8646h8.3235v-3.8646c0-.5465-.1076-1.0877-.3167-1.5927-.2092-.5049-.5157-.9637-.9022-1.3502-.3865-.3865-.8452-.693-1.3502-.9022-.5049-.2091-1.0461-.3168-1.5927-.3168z" fill="#E8E8E8"/><path d="M39.3618 62.6438h20.5213" stroke="#E8E8E8" stroke-width="6" stroke-miterlimit="10" stroke-linecap="round"/><path d="M39.3618 62.6438h13.3349" stroke="#0078D4" stroke-width="6" stroke-miterlimit="10" stroke-linecap="round"/><path d="M37.24 44.1619l12.42 8.06 12.639-8.092 1.584 1.851-14.223 9.157-14.004-9.157 1.584-1.819z" fill="#50E6FF"/><path d="M38.1809 43.127l11.479-13.674 11.714 13.689-11.714 7.402-11.479-7.417z" fill="#fff"/><path d="M49.6599 29.453v21.091l-11.479-7.417 11.479-13.674z" fill="#50E6FF"/><path d="M49.6599 29.453v21.091l11.714-7.402-11.714-13.689z" fill="url(#paint1_linear_259913)"/><path d="M49.6599 40.3509l11.714 2.791-11.714 7.402v-10.193z" fill="#53B1E0"/><path d="M49.6599 50.5439l-11.479-7.417 11.479-2.776v10.193z" fill="#9CEBFF"/><path d="M49.6599 55.1379l14.223-9.157-1.584-1.851-12.639 8.092v2.916z" fill="url(#paint2_linear_259913)"/></g><defs><linearGradient id="paint0_linear_259913" x1="47.8697" y1="-15.1532" x2="51.8525" y2="130.615" gradientUnits="userSpaceOnUse"><stop stop-color="#00ABDE"/><stop offset="1" stop-color="#007ED8"/></linearGradient><linearGradient id="paint1_linear_259913" x1="56.4416" y1="48.5953" x2="49.1812" y2="34.8429" gradientUnits="userSpaceOnUse"><stop stop-color="#1988D9"/><stop offset=".9" stop-color="#54AEF0"/></linearGradient><linearGradient id="paint2_linear_259913" x1="53.3158" y1="44.5991" x2="58.3338" y2="53.2552" gradientUnits="userSpaceOnUse"><stop offset=".1" stop-color="#54AEF0"/><stop offset=".29" stop-color="#4FABEE"/><stop offset=".51" stop-color="#41A2E9"/><stop offset=".74" stop-color="#2A93E0"/><stop offset=".88" stop-color="#1988D9"/></linearGradient><clipPath id="clip0_259913"><path fill="#fff" d="M0 0h99.2799v99.28H0z"/></clipPath></defs></svg>

<svg width="100" height="100" viewBox="0 0 100 100" fill="none" xmlns="http://www.w3.org/2000/svg">
<g clip-path="url(#clip0_142:283)">
<path d="M49.6401 96.4499C40.382 96.4499 31.3317 93.7045 23.6339 88.561C15.936 83.4174 9.93624 76.1067 6.3933 67.5533C2.85036 58.9999 1.92337 49.588 3.72954 40.5077C5.53571 31.4275 9.99394 23.0867 16.5404 16.5402C23.0869 9.99372 31.4277 5.5355 40.5079 3.72933C49.5882 1.92315 59.0001 2.85015 67.5535 6.39308C76.1069 9.93602 83.4176 15.9358 88.5612 23.6336C93.7047 31.3315 96.4501 40.3817 96.4501 49.6399C96.4505 55.7872 95.24 61.8744 92.8878 67.5538C90.5355 73.2332 87.0875 78.3937 82.7407 82.7405C78.3939 87.0873 73.2335 90.5353 67.554 92.8876C61.8746 95.2398 55.7874 96.4503 49.6401 96.4499V96.4499Z" fill="url(#paint0_linear_142:283)"/>
<path fill-rule="evenodd" clip-rule="evenodd" d="M95.54 49.6399C95.54 58.718 92.848 67.5923 87.8045 75.1406C82.7609 82.6888 75.5923 88.5719 67.2052 92.046C58.818 95.52 49.5891 96.429 40.6854 94.6579C31.7816 92.8869 23.603 88.5153 17.1838 82.0961C10.7646 75.6769 6.39302 67.4983 4.62196 58.5945C2.85089 49.6908 3.75987 40.4618 7.23393 32.0747C10.708 23.6876 16.5911 16.519 24.1393 11.4754C31.6875 6.43187 40.5618 3.73988 49.64 3.73988C55.6677 3.73986 61.6363 4.92708 67.2052 7.23377C72.774 9.54045 77.834 12.9214 82.0963 17.1836C86.3585 21.4458 89.7394 26.5058 92.0461 32.0747C94.3528 37.6435 95.54 43.6122 95.54 49.6399V49.6399ZM49.64 -0.000106449C59.4579 -0.000106449 69.0552 2.91123 77.2185 8.36574C85.3818 13.8203 91.7442 21.573 95.5014 30.6435C99.2585 39.714 100.242 49.695 98.3262 59.3242C96.4108 68.9534 91.6831 77.7984 84.7408 84.7407C77.7985 91.683 68.9535 96.4107 59.3243 98.3261C49.6951 100.241 39.7141 99.2584 30.6436 95.5013C21.5731 91.7441 13.8204 85.3816 8.36584 77.2184C2.91133 69.0551 -1.61629e-06 59.4577 3.61524e-07 49.6399C-0.000786426 43.1208 1.28265 36.6655 3.77702 30.6425C6.27138 24.6196 9.92781 19.147 14.5375 14.5374C19.1471 9.9277 24.6197 6.27127 30.6427 3.77691C36.6656 1.28254 43.121 -0.000894549 49.64 -0.000106449V-0.000106449Z" fill="#F2F1F0"/>
<path fill-rule="evenodd" clip-rule="evenodd" d="M92.7296 49.64C92.7296 58.1624 90.2024 66.4934 85.4676 73.5795C80.7328 80.6656 74.0031 86.1886 66.1294 89.45C58.2557 92.7113 49.5918 93.5647 41.2331 91.902C32.8745 90.2394 25.1966 86.1355 19.1703 80.1092C13.1441 74.083 9.04017 66.4051 7.37753 58.0464C5.7149 49.6878 6.56822 41.0238 9.8296 33.1502C13.091 25.2765 18.6139 18.5468 25.7 13.812C32.7862 9.07718 41.1172 6.55 49.6396 6.55C55.2983 6.54965 60.9017 7.66397 66.1298 9.82933C71.3579 11.9947 76.1082 15.1687 80.1096 19.17C84.1109 23.1713 87.2849 27.9217 89.4502 33.1498C91.6156 38.3778 92.7299 43.9812 92.7296 49.64ZM49.6396 2.81C58.9017 2.81 67.9558 5.55653 75.6569 10.7023C83.3581 15.848 89.3604 23.1619 92.9049 31.7189C96.4493 40.276 97.3767 49.6919 95.5697 58.7761C93.7628 67.8602 89.3027 76.2045 82.7534 82.7538C76.2041 89.3031 67.8598 93.7632 58.7757 95.5702C49.6915 97.3771 40.2756 96.4497 31.7185 92.9053C23.1614 89.3608 15.8476 83.3585 10.7018 75.6574C5.5561 67.9562 2.80957 58.9021 2.80957 49.64C2.81076 37.2203 7.74501 25.3096 16.5271 16.5275C25.3091 7.74544 37.2198 2.81119 49.6396 2.81V2.81Z" fill="#0078D4"/>
<path fill-rule="evenodd" clip-rule="evenodd" d="M92.7296 49.6399C92.7296 58.1623 90.2024 66.4933 85.4676 73.5794C80.7328 80.6655 74.0031 86.1885 66.1294 89.4499C58.2557 92.7112 49.5918 93.5646 41.2331 91.9019C32.8745 90.2393 25.1966 86.1354 19.1703 80.1091C13.1441 74.0829 9.04017 66.405 7.37753 58.0463C5.7149 49.6877 6.56822 41.0237 9.8296 33.1501C13.091 25.2764 18.6139 18.5467 25.7001 13.8119C32.7862 9.07708 41.1172 6.5499 49.6396 6.5499C55.2983 6.54956 60.9017 7.66388 66.1298 9.82923C71.3579 11.9946 76.1082 15.1686 80.1096 19.1699C84.1109 23.1712 87.2849 27.9216 89.4502 33.1497C91.6156 38.3777 92.7299 43.9811 92.7296 49.6399V49.6399ZM49.6396 2.8099C58.9017 2.8099 67.9558 5.55643 75.6569 10.7022C83.3581 15.8479 89.3604 23.1618 92.9048 31.7188C96.4493 40.2759 97.3767 49.6918 95.5697 58.776C93.7628 67.8601 89.3027 76.2044 82.7534 82.7537C76.2041 89.303 67.8598 93.7631 58.7757 95.5701C49.6915 97.377 40.2756 96.4496 31.7185 92.9052C23.1614 89.3607 15.8476 83.3584 10.7018 75.6573C5.5561 67.9561 2.80957 58.902 2.80957 49.6399C2.81075 37.2202 7.74499 25.3095 16.5271 16.5274C25.3091 7.7453 37.2198 2.81105 49.6396 2.80986V2.8099Z" fill="#0078D4"/>
<path fill-rule="evenodd" clip-rule="evenodd" d="M35.4068 23.0159C34.0761 23.0159 32.7999 23.5445 31.8589 24.4855C30.9179 25.4265 30.3893 26.7027 30.3893 28.0334V71.3136C30.3893 71.8602 30.2816 72.4014 30.0725 72.9063C29.8633 73.4113 29.5567 73.8701 29.1703 74.2565C28.7838 74.643 28.325 74.9496 27.82 75.1587C27.3151 75.3679 26.7738 75.4755 26.2273 75.4755H63.585C64.2439 75.4755 64.8963 75.3457 65.5051 75.0936C66.1139 74.8414 66.667 74.4718 67.1329 74.0059C67.5988 73.54 67.9684 72.9869 68.2206 72.3781C68.4727 71.7694 68.6025 71.1169 68.6025 70.458V27.1778C68.6025 26.074 69.041 25.0154 69.8215 24.2349C70.602 23.4544 71.6606 23.0159 72.7644 23.0159H35.4068Z" fill="white"/>
<path fill-rule="evenodd" clip-rule="evenodd" d="M60.4008 72.3188C60.3399 72.0379 60.1859 71.7858 59.9638 71.6034C59.7417 71.4209 59.4646 71.3188 59.1772 71.3135H23.6125C23.3982 71.3144 23.1878 71.3698 23.0008 71.4744C22.8138 71.579 22.6565 71.7294 22.5437 71.9115C22.4309 72.0936 22.3662 72.3015 22.3557 72.5154C22.3453 72.7294 22.3895 72.9425 22.484 73.1348C22.8257 73.8367 23.3579 74.4284 24.0198 74.8423C24.6817 75.2561 25.4466 75.4755 26.2273 75.4754H64.4405C63.5115 75.4753 62.6092 75.1645 61.8772 74.5926C61.1452 74.0206 60.6255 73.2202 60.4008 72.3188V72.3188Z" fill="#E8E8E8"/>
<path fill-rule="evenodd" clip-rule="evenodd" d="M72.7645 23.0158C71.6608 23.0159 70.6022 23.4543 69.8217 24.2348C69.0412 25.0153 68.6028 26.0739 68.6028 27.1777V31.0423H76.9263V27.1777C76.9263 26.6312 76.8187 26.09 76.6096 25.585C76.4004 25.0801 76.0939 24.6213 75.7074 24.2348C75.3209 23.8483 74.8622 23.5418 74.3572 23.3326C73.8523 23.1235 73.3111 23.0158 72.7645 23.0158V23.0158Z" fill="#E8E8E8"/>
<path d="M39.3618 62.6438H59.8831" stroke="#E8E8E8" stroke-width="6" stroke-miterlimit="10" stroke-linecap="round"/>
<path d="M39.3618 62.6438H52.6967" stroke="#0078D4" stroke-width="6" stroke-miterlimit="10" stroke-linecap="round"/>
<path d="M37.24 44.1619L49.66 52.2219L62.299 44.1299L63.883 45.9809L49.66 55.1379L35.656 45.9809L37.24 44.1619Z" fill="#50E6FF"/>
<path d="M38.1809 43.127L49.6599 29.453L61.3739 43.142L49.6599 50.544L38.1809 43.127Z" fill="white"/>
<path d="M49.6599 29.453V50.544L38.1809 43.127L49.6599 29.453Z" fill="#50E6FF"/>
<path d="M49.6599 29.453V50.544L61.3739 43.142L49.6599 29.453Z" fill="url(#paint1_linear_142:283)"/>
<path d="M49.6599 40.3509L61.3739 43.1419L49.6599 50.5439V40.3509Z" fill="#53B1E0"/>
<path d="M49.6599 50.5439L38.1809 43.1269L49.6599 40.3509V50.5439Z" fill="#9CEBFF"/>
<path d="M49.6599 55.1379L63.8829 45.9809L62.2989 44.1299L49.6599 52.2219V55.1379Z" fill="url(#paint2_linear_142:283)"/>
</g>
<defs>
<linearGradient id="paint0_linear_142:283" x1="47.8697" y1="-15.1532" x2="51.8525" y2="130.615" gradientUnits="userSpaceOnUse">
<stop stop-color="#00ABDE"/>
<stop offset="1" stop-color="#007ED8"/>
</linearGradient>
<linearGradient id="paint1_linear_142:283" x1="56.4416" y1="48.5953" x2="49.1812" y2="34.8429" gradientUnits="userSpaceOnUse">
<stop stop-color="#1988D9"/>
<stop offset="0.9" stop-color="#54AEF0"/>
</linearGradient>
<linearGradient id="paint2_linear_142:283" x1="53.3158" y1="44.5991" x2="58.3338" y2="53.2552" gradientUnits="userSpaceOnUse">
<stop offset="0.1" stop-color="#54AEF0"/>
<stop offset="0.29" stop-color="#4FABEE"/>
<stop offset="0.51" stop-color="#41A2E9"/>
<stop offset="0.74" stop-color="#2A93E0"/>
<stop offset="0.88" stop-color="#1988D9"/>
</linearGradient>
<clipPath id="clip0_142:283">
<rect width="99.2799" height="99.28" fill="white"/>
</clipPath>
</defs>
</svg>
